assets/logo.svg

<svg xmlns="http://www.w3.org/2000/svg" xml:space="preserve" stroke-miterlimit="10" style="fill-rule:nonzero;clip-rule:evenodd;stroke-linecap:round;stroke-linejoin:round" viewBox="0 0 3370.82 2384.24">
<path fill="#1991e8" d="M2408.1 1175.66c0-51.88 39.91-93.93 89.14-93.93h643.57c49.23 0 89.13 42.05 89.13 93.93v13.25c0 51.88-39.9 93.93-89.13 93.93h-643.57c-49.23 0-89.14-42.05-89.14-93.93zM2382.82 494.785c0-42.219 33.56-76.445 74.95-76.445h722.51c41.39 0 74.94 34.226 74.94 76.445v.635c0 42.22-33.55 76.446-74.94 76.446h-722.51c-41.39 0-74.95-34.226-74.95-76.446zM99.04 490.074c0-39.618 39.829-71.734 88.961-71.734h5.364c49.132 0 88.962 32.116 88.962 71.734V1958.57c0 39.62-39.83 71.73-88.962 71.73h-5.364c-49.132 0-88.961-32.11-88.961-71.73z"/>
<path fill="#1991e8" d="M99.04 1920.93c0-50.67 42.201-91.74 94.258-91.74h813.372c52.06 0 94.26 41.07 94.26 91.74v17.63c0 50.67-42.2 91.74-94.26 91.74H193.298c-52.057 0-94.258-41.07-94.258-91.74zM497.529 1012.04c0-48.735 44.36-88.244 99.082-88.244h6.751c54.721 0 99.081 39.509 99.081 88.244v573.03c0 48.73-44.36 88.24-99.081 88.24h-6.751c-54.722 0-99.082-39.51-99.082-88.24z"/>
<path fill="#1991e8" d="M916.945 923.441c0-45.303 36.637-82.028 81.832-82.028h20.323c45.2 0 81.83 36.725 81.83 82.028V1949.81c0 45.3-36.63 82.03-81.83 82.03h-20.323c-45.195 0-81.832-36.73-81.832-82.03z"/>
<path fill="#1991e8" d="M916.945 927.574c0-47.585 38.575-86.161 86.165-86.161h375.76c47.59 0 86.16 38.576 86.16 86.161v3.486c0 47.585-38.57 86.16-86.16 86.16h-375.76c-47.59 0-86.165-38.575-86.165-86.16zM2042.44 923.232c0-51.286 41.15-92.861 91.91-92.861h7.03c50.75 0 91.9 41.575 91.9 92.861V1937.44c0 51.29-41.15 92.86-91.9 92.86h-7.03c-50.76 0-91.91-41.57-91.91-92.86z"/>
<path fill="#1991e8" d="M1011.22 1829.19h1471.81c48.98 0 88.68 41.17 88.68 91.97v15.46c0 50.79-39.7 92.01-88.68 92.06l-1471.81 1.62c-48.977.06-88.678-41.07-88.678-91.87v-17.27c0-50.8 39.701-91.97 88.678-91.97M1262.83 1158.9h140.7c11.76 0 21.29 10.46 21.29 23.36v.05c0 12.9-9.53 23.36-21.29 23.36h-140.7c-11.76 0-21.29-10.46-21.29-23.36v-.05c0-12.9 9.53-23.36 21.29-23.36M1715.16 1180.52c0-11.94 8.82-21.62 19.7-21.62h143.88c10.88 0 19.7 9.68 19.7 21.62v3.53c0 11.94-8.82 21.62-19.7 21.62h-143.88c-10.88 0-19.7-9.68-19.7-21.62z"/>
<path fill="#1991e8" d="M1866.47 1181.56c0-12.51 9.25-22.66 20.66-22.66h1.32c11.4 0 20.65 10.15 20.65 22.66v155.8c0 12.51-9.25 22.66-20.65 22.66h-1.32c-11.41 0-20.66-10.15-20.66-22.66zM1392.85 1181.74c0-12.61 9.32-22.84 20.82-22.84h.99c11.5 0 20.82 10.23 20.82 22.84v155.43c0 12.62-9.32 22.85-20.82 22.85h-.99c-11.5 0-20.82-10.23-20.82-22.85zM1531.87 1519.55c0-12.67 9.36-22.93 20.9-22.93h141.49c11.54 0 20.9 10.26 20.9 22.93v.91c0 12.66-9.36 22.93-20.9 22.93h-141.49c-11.54 0-20.9-10.27-20.9-22.93z"/>
<path fill="#1991e8" d="M1689.94 1519.23c0-12.49 9.23-22.61 20.62-22.61h1.4c11.38 0 20.61 10.12 20.61 22.61v155.89c0 12.49-9.23 22.61-20.61 22.61h-1.4c-11.39 0-20.62-10.12-20.62-22.61zM2382.82 509.045c0-50.095 40.61-90.705 90.71-90.705h1.88c50.09 0 90.7 40.61 90.7 90.705V1941.13c0 50.1-40.61 90.71-90.7 90.71h-1.88c-50.1 0-90.71-40.61-90.71-90.71zM1685.41 922.697c0-50.99 38.89-92.326 86.87-92.326h374.13c47.98 0 86.87 41.336 86.87 92.326v2.198c0 50.99-38.89 92.325-86.87 92.325h-374.13c-47.98 0-86.87-41.335-86.87-92.325z"/>
<path fill="#1991e8" d="M2382.82 1924.87c0-52.84 42.44-95.68 94.78-95.68h682.85c52.34 0 94.77 42.84 94.77 95.68v9.75c0 52.84-42.43 95.68-94.77 95.68H2477.6c-52.34 0-94.78-42.84-94.78-95.68zM1055.27 575.187c-29.09-50.607-14.33-113.669 32.96-140.853l1-.576c47.29-27.185 109.21-8.197 138.3 42.41l222.59 387.219c29.09 50.607 14.33 113.67-32.96 140.853l-1 .58c-47.29 27.18-109.21 8.19-138.3-42.413zM1926.59 472.909c29.6-50.603 91.62-69.385 138.52-41.95l1.66.972c46.9 27.435 60.92 90.697 31.32 141.3L1870.3 962.652c-29.6 50.598-91.62 69.388-138.52 41.948l-1.66-.97c-46.9-27.436-60.93-90.698-31.33-141.301z"/>
</svg>

<?xml version="1.0" encoding="UTF-8" standalone="no"?>
<!DOCTYPE svg PUBLIC "-//W3C//DTD SVG 1.1//EN" "http://www.w3.org/Graphics/SVG/1.1/DTD/svg11.dtd">
<!-- Created with Vectornator (http://vectornator.io/) -->
<svg height="100%" stroke-miterlimit="10" style="fill-rule:nonzero;clip-rule:evenodd;stroke-linecap:round;stroke-linejoin:round;" version="1.1" viewBox="0 0 3370.82 2384.24" width="100%" xml:space="preserve" xmlns="http://www.w3.org/2000/svg" xmlns:vectornator="http://vectornator.io" xmlns:xlink="http://www.w3.org/1999/xlink">
<defs/>
<g id="图层-1" vectornator:layerName="图层 1">
<path d="M2408.1 1175.66C2408.1 1123.78 2448.01 1081.73 2497.24 1081.73L3140.81 1081.73C3190.04 1081.73 3229.94 1123.78 3229.94 1175.66L3229.94 1188.91C3229.94 1240.79 3190.04 1282.84 3140.81 1282.84L2497.24 1282.84C2448.01 1282.84 2408.1 1240.79 2408.1 1188.91L2408.1 1175.66Z" fill="#1991e8" fill-rule="nonzero" opacity="1" stroke="none" vectornator:layerName="长方形 9"/>
<path d="M2382.82 494.785C2382.82 452.566 2416.38 418.34 2457.77 418.34L3180.28 418.34C3221.67 418.34 3255.22 452.566 3255.22 494.785L3255.22 495.42C3255.22 537.64 3221.67 571.866 3180.28 571.866L2457.77 571.866C2416.38 571.866 2382.82 537.64 2382.82 495.42L2382.82 494.785Z" fill="#1991e8" fill-rule="nonzero" opacity="1" stroke="none" vectornator:layerName="长方形 6"/>
<path d="M99.0397 490.074C99.0397 450.456 138.869 418.34 188.001 418.34L193.365 418.34C242.497 418.34 282.327 450.456 282.327 490.074L282.327 1958.57C282.327 1998.19 242.497 2030.3 193.365 2030.3L188.001 2030.3C138.869 2030.3 99.0397 1998.19 99.0397 1958.57L99.0397 490.074Z" fill="#1991e8" fill-rule="nonzero" opacity="1" stroke="none" vectornator:layerName="长方形 1"/>
<path d="M99.0397 1920.93C99.0397 1870.26 141.241 1829.19 193.298 1829.19L1006.67 1829.19C1058.73 1829.19 1100.93 1870.26 1100.93 1920.93L1100.93 1938.56C1100.93 1989.23 1058.73 2030.3 1006.67 2030.3L193.298 2030.3C141.241 2030.3 99.0397 1989.23 99.0397 1938.56L99.0397 1920.93Z" fill="#1991e8" fill-rule="nonzero" opacity="1" stroke="none" vectornator:layerName="长方形 2"/>
<path d="M497.529 1012.04C497.529 963.305 541.889 923.796 596.611 923.796L603.362 923.796C658.083 923.796 702.443 963.305 702.443 1012.04L702.443 1585.07C702.443 1633.8 658.083 1673.31 603.362 1673.31L596.611 1673.31C541.889 1673.31 497.529 1633.8 497.529 1585.07L497.529 1012.04Z" fill="#1991e8" fill-rule="nonzero" opacity="1" stroke="none" vectornator:layerName="长方形 3"/>
<path d="M916.945 923.441C916.945 878.138 953.582 841.413 998.777 841.413L1019.1 841.413C1064.3 841.413 1100.93 878.138 1100.93 923.441L1100.93 1949.81C1100.93 1995.11 1064.3 2031.84 1019.1 2031.84L998.777 2031.84C953.582 2031.84 916.945 1995.11 916.945 1949.81L916.945 923.441Z" fill="#1991e8" fill-rule="nonzero" opacity="1" stroke="none" vectornator:layerName="长方形 10"/>
<path d="M916.945 927.574C916.945 879.989 955.52 841.413 1003.11 841.413L1378.87 841.413C1426.46 841.413 1465.03 879.989 1465.03 927.574L1465.03 931.06C1465.03 978.645 1426.46 1017.22 1378.87 1017.22L1003.11 1017.22C955.52 1017.22 916.945 978.645 916.945 931.06L916.945 927.574Z" fill="#1991e8" fill-rule="nonzero" opacity="1" stroke="none" vectornator:layerName="长方形 11"/>
<path d="M2042.44 923.232C2042.44 871.946 2083.59 830.371 2134.35 830.371L2141.38 830.371C2192.13 830.371 2233.28 871.946 2233.28 923.232L2233.28 1937.44C2233.28 1988.73 2192.13 2030.3 2141.38 2030.3L2134.35 2030.3C2083.59 2030.3 2042.44 1988.73 2042.44 1937.44L2042.44 923.232Z" fill="#1991e8" fill-rule="nonzero" opacity="1" stroke="none" vectornator:layerName="长方形 14"/>
<path d="M1011.22 1829.19L2483.03 1829.19C2532.01 1829.19 2571.71 1870.36 2571.71 1921.16L2571.71 1936.62C2571.71 1987.41 2532.01 2028.63 2483.03 2028.68L1011.22 2030.3C962.243 2030.36 922.542 1989.23 922.542 1938.43L922.542 1938.34L922.542 1921.16C922.542 1870.36 962.243 1829.19 1011.22 1829.19Z" fill="#1991e8" fill-rule="nonzero" opacity="1" stroke="none" vectornator:layerName="长方形 15"/>
<path d="M1262.83 1158.9L1403.53 1158.9C1415.29 1158.9 1424.82 1169.36 1424.82 1182.26L1424.82 1182.31C1424.82 1195.21 1415.29 1205.67 1403.53 1205.67L1262.83 1205.67C1251.07 1205.67 1241.54 1195.21 1241.54 1182.31L1241.54 1182.26C1241.54 1169.36 1251.07 1158.9 1262.83 1158.9Z" fill="#1991e8" fill-rule="nonzero" opacity="1" stroke="none" vectornator:layerName="长方形 16"/>
<path d="M1715.16 1180.52C1715.16 1168.58 1723.98 1158.9 1734.86 1158.9L1878.74 1158.9C1889.62 1158.9 1898.44 1168.58 1898.44 1180.52L1898.44 1184.05C1898.44 1195.99 1889.62 1205.67 1878.74 1205.67L1734.86 1205.67C1723.98 1205.67 1715.16 1195.99 1715.16 1184.05L1715.16 1180.52Z" fill="#1991e8" fill-rule="nonzero" opacity="1" stroke="none" vectornator:layerName="长方形 21"/>
<path d="M1866.47 1181.56C1866.47 1169.05 1875.72 1158.9 1887.13 1158.9L1888.45 1158.9C1899.85 1158.9 1909.1 1169.05 1909.1 1181.56L1909.1 1337.36C1909.1 1349.87 1899.85 1360.02 1888.45 1360.02L1887.13 1360.02C1875.72 1360.02 1866.47 1349.87 1866.47 1337.36L1866.47 1181.56Z" fill="#1991e8" fill-rule="nonzero" opacity="1" stroke="none" vectornator:layerName="长方形 22"/>
<path d="M1392.85 1181.74C1392.85 1169.13 1402.17 1158.9 1413.67 1158.9L1414.66 1158.9C1426.16 1158.9 1435.48 1169.13 1435.48 1181.74L1435.48 1337.17C1435.48 1349.79 1426.16 1360.02 1414.66 1360.02L1413.67 1360.02C1402.17 1360.02 1392.85 1349.79 1392.85 1337.17L1392.85 1181.74Z" fill="#1991e8" fill-rule="nonzero" opacity="1" stroke="none" vectornator:layerName="长方形 23"/>
<path d="M1531.87 1519.55C1531.87 1506.88 1541.23 1496.62 1552.77 1496.62L1694.26 1496.62C1705.8 1496.62 1715.16 1506.88 1715.16 1519.55L1715.16 1520.46C1715.16 1533.12 1705.8 1543.39 1694.26 1543.39L1552.77 1543.39C1541.23 1543.39 1531.87 1533.12 1531.87 1520.46L1531.87 1519.55Z" fill="#1991e8" fill-rule="nonzero" opacity="1" stroke="none" vectornator:layerName="长方形 24"/>
<path d="M1689.94 1519.23C1689.94 1506.74 1699.17 1496.62 1710.56 1496.62L1711.96 1496.62C1723.34 1496.62 1732.57 1506.74 1732.57 1519.23L1732.57 1675.12C1732.57 1687.61 1723.34 1697.73 1711.96 1697.73L1710.56 1697.73C1699.17 1697.73 1689.94 1687.61 1689.94 1675.12L1689.94 1519.23Z" fill="#1991e8" fill-rule="nonzero" opacity="1" stroke="none" vectornator:layerName="长方形 25"/>
<path d="M2382.82 509.045C2382.82 458.95 2423.43 418.34 2473.53 418.34L2475.41 418.34C2525.5 418.34 2566.11 458.95 2566.11 509.045L2566.11 1941.13C2566.11 1991.23 2525.5 2031.84 2475.41 2031.84L2473.53 2031.84C2423.43 2031.84 2382.82 1991.23 2382.82 1941.13L2382.82 509.045Z" fill="#1991e8" fill-rule="nonzero" opacity="1" stroke="none" vectornator:layerName="长方形 7"/>
<path d="M1685.41 922.697C1685.41 871.707 1724.3 830.371 1772.28 830.371L2146.41 830.371C2194.39 830.371 2233.28 871.707 2233.28 922.697L2233.28 924.895C2233.28 975.885 2194.39 1017.22 2146.41 1017.22L1772.28 1017.22C1724.3 1017.22 1685.41 975.885 1685.41 924.895L1685.41 922.697Z" fill="#1991e8" fill-rule="nonzero" opacity="1" stroke="none" vectornator:layerName="长方形 13"/>
<path d="M2382.82 1924.87C2382.82 1872.03 2425.26 1829.19 2477.6 1829.19L3160.45 1829.19C3212.79 1829.19 3255.22 1872.03 3255.22 1924.87L3255.22 1934.62C3255.22 1987.46 3212.79 2030.3 3160.45 2030.3L2477.6 2030.3C2425.26 2030.3 2382.82 1987.46 2382.82 1934.62L2382.82 1924.87Z" fill="#1991e8" fill-rule="nonzero" opacity="1" stroke="none" vectornator:layerName="长方形 8"/>
<path d="M1055.27 575.187C1026.18 524.58 1040.94 461.518 1088.23 434.334L1089.23 433.758C1136.52 406.573 1198.44 425.561 1227.53 476.168L1450.12 863.387C1479.21 913.994 1464.45 977.057 1417.16 1004.24L1416.16 1004.82C1368.87 1032 1306.95 1013.01 1277.86 962.407L1055.27 575.187Z" fill="#1991e8" fill-rule="nonzero" opacity="1" stroke="none" vectornator:layerName="长方形 26"/>
<path d="M1926.59 472.909C1956.19 422.306 2018.21 403.524 2065.11 430.959L2066.77 431.931C2113.67 459.366 2127.69 522.628 2098.09 573.231L1870.3 962.652C1840.7 1013.25 1778.68 1032.04 1731.78 1004.6L1730.12 1003.63C1683.22 976.194 1669.19 912.932 1698.79 862.329L1926.59 472.909Z" fill="#1991e8" fill-rule="nonzero" opacity="1" stroke="none" vectornator:layerName="长方形 27"/>
</g>
</svg>
